icon/fa/droplet.svg

<svg xmlns="http://www.w3.org/2000/svg" viewBox="0 0 384 512"><!--! Font Awesome Free 6.1.2 by @fontawesome - https://fontawesome.com License - https://fontawesome.com/license/free (Icons: CC BY 4.0, Fonts: SIL OFL 1.1, Code: MIT License) Copyright 2022 Fonticons, Inc.--><path d="M16 319.1c0-73.2 102.3-229.67 150.9-299.8 12.3-17.715 37.9-17.715 50.2 0C265.7 89.43 368 245.9 368 319.1c0 98.1-78.8 176.9-176 176.9S16 417.2 16 319.1zm96 0c0-7.9-7.2-16-16-16-8.84 0-16 8.1-16 16C80 381.9 130.1 432 192 432c8.8 0 16-7.2 16-16s-7.2-16-16-16c-44.2 0-80-35.8-80-80.9z"/></svg>

<svg xmlns="http://www.w3.org/2000/svg" viewBox="0 0 384 512" height="1em" width="1em">
<!--! Font Awesome Free 6.1.2 by @fontawesome - https://fontawesome.com License - https://fontawesome.com/license/free (Icons: CC BY 4.0, Fonts: SIL OFL 1.1, Code: MIT License) Copyright 2022 Fonticons, Inc.-->
  <path d="M16 319.1C16 245.9 118.3 89.43 166.9 19.3C179.2 1.585 204.8 1.585 217.1 19.3C265.7 89.43 368 245.9 368 319.1C368 417.2 289.2 496 192 496C94.8 496 16 417.2 16 319.1zM112 319.1C112 311.2 104.8 303.1 96 303.1C87.16 303.1 80 311.2 80 319.1C80 381.9 130.1 432 192 432C200.8 432 208 424.8 208 416C208 407.2 200.8 400 192 400C147.8 400 112 364.2 112 319.1z"/>
</svg>
